X:128
T:Gino's Reel
Z:robin.beech@mcgill.ca
S:Gino, Bar Utopik, Montreal
M:4/4
L:1/8
K:Bmin
B2dB B2dB | B2dB BAFA | B2dB B2dB | B2dB BAFA |
B2dB B2dB | B2dB BAFA | B2dB B2dB | B2dB BAFA |:
f3 f3 f2- | f4 fece | e3 e3 c2- | c4 c2BA |
B2dB B2dB | B2dB BAFA | B2dB B2dB | B2dB BAFA :|
K:D
|: G3 B3 d2- | d4 dedB | E3 B3 e2- | e4 efed |1
B2dB B2dB | B2dB BAFA | B2dB B2dB | B2dB BAFA :|2
f2af f2af | f2af fece | f2af f2af | f2af fece |]
